Square/POP-Pankki.svg

<?xml version="1.0" encoding="UTF-8"?>
<svg width="32px" height="32px" viewBox="0 0 32 32" version="1.1" xmlns="http://www.w3.org/2000/svg" xmlns:xlink="http://www.w3.org/1999/xlink">
    <!-- Generator: Sketch 52.3 (67297) - http://www.bohemiancoding.com/sketch -->
    <title>Square/POP-Pankki</title>
    <desc>Created with Sketch.</desc>
    <g id="Square/POP-Pankki" stroke="none" stroke-width="1" fill="none" fill-rule="evenodd">
        <path d="M2.07,20.1043478 C2.14,20.0347826 2.28,19.9652174 2.28,19.9652174 C2.21,19.5478261 2.42,19.0608696 2.14,18.6434783 C2,18.4347826 2.14,18.0869565 2.14,17.7391304 C2.35,17.7391304 2.49,17.6695652 2.7,17.6695652 L2.7,15.7217391 C2.84,15.6521739 2.98,15.6521739 3.05,15.6521739 L3.05,14.1913043 C3.96,13.9826087 3.82,13.0782609 4.17,12.4521739 C4.52,12.9391304 4.8,13.4956522 5.5,13.4956522 C5.99,13.1478261 5.99,13.1478261 6.41,12.0347826 C6.55,12.1043478 6.69,12.173913 6.83,12.2434783 C7.32,11.6869565 7.32,10.9913043 7.32,10.2956522 L7.95,10.2956522 C8.37,9.73913043 8.79,9.25217391 9.14,8.69565217 L9.91,8.69565217 C9.98,8.76521739 10.05,8.97391304 10.05,9.04347826 C10.4,9.11304348 10.54,9.11304348 10.75,9.11304348 C10.82,9.25217391 10.82,9.39130435 10.89,9.46086957 L11.24,9.46086957 C11.52,9.1826087 11.73,8.90434783 12.08,8.48695652 C12.22,8.76521739 12.22,8.90434783 12.29,9.04347826 C12.78,8.62608696 13.13,8.20869565 12.99,7.44347826 L13.69,7.44347826 C13.83,7.30434783 13.9,7.23478261 14.04,7.09565217 L14.04,6.60869565 C14.18,6.60869565 14.32,6.53913043 14.6,6.53913043 C14.74,6.4 14.88,6.12173913 15.02,5.91304348 C15.51,6.33043478 15.86,6.74782609 15.86,7.37391304 C16,7.37391304 16.21,7.44347826 16.35,7.44347826 C16.49,7.5826087 16.56,7.72173913 16.7,7.93043478 C16.91,7.51304348 17.12,7.23478261 17.33,6.8173913 C17.4,6.88695652 17.47,6.95652174 17.54,6.95652174 C18.17,6.8173913 17.96,6.05217391 18.38,5.77391304 C18.45,5.84347826 18.45,5.84347826 18.59,5.9826087 C18.87,5.77391304 19.22,5.63478261 19.57,5.35652174 C19.71,5.49565217 19.85,5.70434783 20.13,5.9826087 C20.27,6.05217391 20.48,6.12173913 20.83,6.19130435 C21.04,5.91304348 21.18,5.63478261 21.39,5.35652174 L22.09,5.35652174 C22.44,4.93913043 22.86,4.45217391 23.28,3.89565217 C23.42,4.03478261 23.49,4.24347826 23.56,4.31304348 L24.12,4.31304348 C24.26,4.17391304 24.33,3.96521739 24.47,3.75652174 C25.38,3.89565217 25.17,2.85217391 25.66,2.50434783 C25.73,2.57391304 25.8,2.64347826 25.94,2.7826087 C26.36,2.29565217 26.92,2.0173913 27.06,1.32173913 C27.2,1.46086957 27.34,1.6 27.48,1.73913043 C27.76,1.32173913 27.97,0.904347826 28.25,0.417391304 C28.46,0.347826087 28.81,0.27826087 29.16,0.139130435 C29.3,0.139130435 29.58,0.0695652174 29.58,0.347826087 C29.51,0.486956522 29.44,0.556521739 29.37,0.626086957 C29.44,0.695652174 29.51,0.765217391 29.58,0.904347826 C29.37,1.25217391 29.16,1.6 28.88,2.0173913 C29.02,2.08695652 29.16,2.15652174 29.37,2.22608696 C29.3,2.64347826 29.51,3.06086957 29.23,3.47826087 C29.3,3.6173913 29.37,3.82608696 29.44,4.03478261 C29.16,4.31304348 28.81,4.66086957 28.39,5.07826087 C28.74,5.14782609 28.88,5.2173913 29.16,5.28695652 C29.23,5.91304348 28.74,6.26086957 28.32,6.74782609 C28.53,6.88695652 28.74,7.02608696 28.95,7.16521739 C28.88,7.5826087 28.74,8 28.67,8.62608696 C28.6,8.69565217 28.46,8.83478261 28.32,8.97391304 C28.39,9.1826087 28.39,9.80869565 28.32,10.4347826 C28.67,10.4347826 28.95,10.4347826 29.23,10.5043478 C29.65,11.0608696 28.6,11.6173913 29.44,12.1043478 C29.16,12.3826087 28.88,12.5217391 28.67,12.7304348 C28.88,12.8 29.02,12.8695652 29.23,13.0086957 C28.95,13.426087 28.67,13.8434783 28.39,14.1913043 C28.46,14.1913043 28.6,14.2608696 28.74,14.3304348 L28.74,14.8869565 C29.09,14.8869565 29.44,14.8869565 29.72,14.9565217 C29.79,15.373913 29.93,15.7913043 30,16.2086957 C29.72,16.4869565 29.44,16.6956522 29.09,16.973913 C29.37,17.2521739 29.51,17.3913043 29.79,17.6695652 C29.44,18.0173913 29.02,18.3652174 28.6,18.7130435 C28.6,18.6434783 28.32,19.6173913 28.32,19.6869565 C28.53,19.7565217 28.67,19.7565217 28.95,19.826087 L28.95,20.3130435 C29.16,20.3826087 29.37,20.3826087 29.51,20.3826087 C29.65,20.5913043 29.51,20.8 28.95,21.5652174 C29.02,21.6347826 29.09,21.773913 29.16,21.9130435 C28.88,22.1217391 28.6,22.3304348 28.32,22.6086957 C28.11,22.8173913 27.9,23.0956522 27.62,23.4434783 C27.34,23.373913 27.06,23.3043478 26.71,23.2347826 C26.5,23.3043478 26.15,23.373913 25.73,23.4434783 C25.8,22.8869565 25.52,22.6086957 25.1,22.3304348 C24.68,22.5391304 24.19,22.7478261 23.63,23.026087 C23.49,22.8173913 23.35,22.6086957 23.14,22.4 C22.79,22.5391304 22.44,22.6782609 22.09,22.8173913 C21.95,22.7478261 21.74,22.6782609 21.53,22.5391304 L21.53,21.0782609 C20.76,20.7304348 20.13,21.2173913 19.5,21.426087 C19.29,21.2173913 19.15,21.0782609 18.94,20.9391304 C18.52,21.2173913 18.17,21.4956522 17.68,21.8434783 C17.47,21.773913 17.12,21.7043478 16.7,21.6347826 C16.14,21.9826087 15.72,22.4 15.44,23.026087 L14.53,23.026087 C14.39,23.373913 14.18,23.7913043 13.97,24.2086957 C13.9,24.2782609 13.69,24.3478261 13.48,24.4869565 L13.48,25.4608696 C12.99,25.4608696 12.57,25.5304348 12.64,26.1565217 C12.01,27.0608696 11.59,28.1043478 10.54,28.7304348 C9.84,29.0782609 9.35,29.7043478 8.65,30.1217391 C7.67,30.7478261 6.62,31.2347826 5.5,31.5130435 C4.38,31.7913043 3.26,32 2.21,31.9304348 C2.7,31.4434783 3.19,30.9565217 3.82,30.3304348 C4.45,30.2608696 5.36,30.2608696 6.13,30.0521739 C6.83,29.9130435 7.53,29.6347826 8.09,29.2173913 C8.37,29.0086957 8.58,28.5913043 8.58,28.2434783 C6.9,26.6434783 5.29,25.0434783 3.68,23.5130435 C3.05,22.8869565 2.63,22.0521739 2.14,21.3565217 C2.07,21.2869565 2.14,21.1478261 2.14,21.0782609 C2.07,20.5913043 2.07,20.3130435 2.07,20.1043478 L2.07,20.1043478 Z" id="Shape" fill="#009B41"></path>
        <path d="M11.66,29.1478261 C12.36,28.3826087 13.13,27.826087 13.41,26.7826087 C14.11,26.1565217 14.67,25.3913043 15.3,24.5565217 C15.58,24.1391304 16.14,23.8608696 16.56,23.5130435 C16.63,23.3043478 16.63,23.0956522 16.7,22.8869565 C17.12,22.9565217 17.54,23.0956522 17.96,23.026087 C18.24,23.026087 18.52,22.6782609 18.8,22.4695652 L20.27,22.4695652 C20.41,22.7478261 20.62,23.0956522 20.76,23.3043478 C21.39,23.8608696 22.09,23.8608696 22.86,23.8608696 C23,23.8608696 23.14,23.9304348 23.35,23.9304348 C23.49,23.9304348 23.63,24.0695652 23.84,24 C24.26,23.9304348 24.61,23.6521739 25.1,24 C25.38,24.2086957 25.94,24.0695652 26.5,24.0695652 C26.36,24.2782609 26.36,24.4869565 26.22,24.5565217 C25.45,25.1130435 24.68,25.6695652 23.84,26.0869565 C23.35,26.2956522 22.93,26.573913 22.37,26.7130435 C21.88,26.8521739 21.46,27.2 20.97,27.2695652 C20.2,27.4086957 19.57,27.7565217 18.8,27.8956522 C18.1,28.0347826 17.4,28.3130435 16.7,28.4521739 C15.65,28.5913043 14.67,29.0086957 13.62,28.9391304 C13.34,28.9391304 12.99,29.0782609 12.71,29.1478261 C12.36,29.1478261 12.08,29.1478261 11.66,29.1478261 L11.66,29.1478261 Z" id="Shape" fill="#8DBB3A"></path>
    </g>
</svg>

<svg width="32" height="32" xmlns="http://www.w3.org/2000/svg"><g fill="none" fill-rule="evenodd"><path d="M2.07 20.104c.07-.07.21-.139.21-.139-.07-.417.14-.904-.14-1.322-.14-.208 0-.556 0-.904.21 0 .35-.07.56-.07v-1.947c.14-.07.28-.07.35-.07v-1.46c.91-.21.77-1.114 1.12-1.74.35.487.63 1.044 1.33 1.044.49-.348.49-.348.91-1.461l.42.208c.49-.556.49-1.252.49-1.947h.63c.42-.557.84-1.044 1.19-1.6h.77c.07.07.14.278.14.347.35.07.49.07.7.07.07.14.07.278.14.348h.35c.28-.278.49-.557.84-.974.14.278.14.417.21.556.49-.417.84-.834.7-1.6h.7l.35-.347v-.487c.14 0 .28-.07.56-.07.14-.139.28-.417.42-.626.49.417.84.835.84 1.46.14 0 .35.07.49.07.14.14.21.279.35.487.21-.417.42-.695.63-1.113.07.07.14.14.21.14.63-.14.42-.905.84-1.183l.21.209c.28-.21.63-.348.98-.626.14.139.28.347.56.626.14.07.35.139.7.208.21-.278.35-.556.56-.834h.7c.35-.418.77-.905 1.19-1.461.14.139.21.347.28.417h.56c.14-.14.21-.348.35-.556.91.139.7-.905 1.19-1.253l.28.279c.42-.487.98-.766 1.12-1.461l.42.417c.28-.417.49-.835.77-1.322.21-.07.56-.139.91-.278.14 0 .42-.07.42.209a.953.953 0 0 1-.21.278c.07.07.14.14.21.278-.21.348-.42.696-.7 1.113.14.07.28.14.49.21-.07.416.14.834-.14 1.251.07.14.14.348.21.557l-1.05 1.043c.35.07.49.14.77.209.07.626-.42.974-.84 1.46.21.14.42.28.63.418-.07.418-.21.835-.28 1.461l-.35.348c.07.209.07.835 0 1.46.35 0 .63 0 .91.07.42.557-.63 1.113.21 1.6-.28.279-.56.418-.77.626.21.07.35.14.56.279-.28.417-.56.834-.84 1.182.07 0 .21.07.35.14v.556c.35 0 .7 0 .98.07.07.417.21.834.28 1.252-.28.278-.56.487-.91.765l.7.696c-.35.347-.77.695-1.19 1.043 0-.07-.28.904-.28.974.21.07.35.07.63.14v.486c.21.07.42.07.56.07.14.208 0 .417-.56 1.182.07.07.14.209.21.348-.28.209-.56.417-.84.696-.21.208-.42.487-.7.834-.28-.07-.56-.139-.91-.208-.21.07-.56.139-.98.208.07-.556-.21-.834-.63-1.113-.42.21-.91.418-1.47.696a3.826 3.826 0 0 0-.49-.626l-1.05.417c-.14-.07-.35-.139-.56-.278v-1.46c-.77-.349-1.4.138-2.03.347-.21-.209-.35-.348-.56-.487-.42.278-.77.557-1.26.904-.21-.07-.56-.139-.98-.208-.56.348-.98.765-1.26 1.391h-.91c-.14.348-.35.765-.56 1.183-.07.07-.28.139-.49.278v.974c-.49 0-.91.07-.84.696-.63.904-1.05 1.947-2.1 2.573-.7.348-1.19.974-1.89 1.392-.98.626-2.03 1.113-3.15 1.391s-2.24.487-3.29.417l1.61-1.6c.63-.07 1.54-.07 2.31-.278.7-.139 1.4-.417 1.96-.835.28-.208.49-.626.49-.974-1.68-1.6-3.29-3.2-4.9-4.73-.63-.626-1.05-1.46-1.54-2.156-.07-.07 0-.21 0-.279-.07-.487-.07-.765-.07-.974z" fill="#009B41"/><path d="M11.66 29.148c.7-.765 1.47-1.322 1.75-2.365.7-.626 1.26-1.392 1.89-2.226.28-.418.84-.696 1.26-1.044.07-.209.07-.417.14-.626.42.07.84.209 1.26.14.28 0 .56-.349.84-.557h1.47c.14.278.35.626.49.834.63.557 1.33.557 2.1.557.14 0 .28.07.49.07.14 0 .28.139.49.069.42-.07.77-.348 1.26 0 .28.209.84.07 1.4.07-.14.208-.14.417-.28.487-.77.556-1.54 1.113-2.38 1.53-.49.209-.91.487-1.47.626-.49.14-.91.487-1.4.557-.77.139-1.4.487-2.17.626-.7.139-1.4.417-2.1.556-1.05.14-2.03.557-3.08.487-.28 0-.63.14-.91.209h-1.05z" fill="#8DBB3A"/></g></svg>
